assets/clock.svg

<svg xmlns="http://www.w3.org/2000/svg" width="97.16" height="97.16" viewBox="0 0 97.16 97.16"><path d="M48.58 0c-26.787 0-48.58 21.793-48.58 48.58s21.793 48.58 48.58 48.58 48.58-21.793 48.58-48.58-21.793-48.58-48.58-48.58zm0 86.823c-21.087 0-38.244-17.155-38.244-38.243s17.157-38.243 38.244-38.243 38.244 17.155 38.244 38.243-17.157 38.243-38.244 38.243zM73.898 47.08h-21.832v-26.25c0-2.209-1.791-4-4-4s-4 1.791-4 4v30.25c0 2.209 1.791 4 4 4h25.832c2.209 0 4-1.791 4-4s-1.791-4-4-4z"/></svg>

<?xml version="1.0" encoding="iso-8859-1"?>
<!-- Generator: Adobe Illustrator 16.0.0, SVG Export Plug-In . SVG Version: 6.00 Build 0)  -->
<!DOCTYPE svg PUBLIC "-//W3C//DTD SVG 1.1//EN" "http://www.w3.org/Graphics/SVG/1.1/DTD/svg11.dtd">
<svg version="1.1" id="Capa_1" xmlns="http://www.w3.org/2000/svg" xmlns:xlink="http://www.w3.org/1999/xlink" x="0px" y="0px"
	 width="97.16px" height="97.16px" viewBox="0 0 97.16 97.16" style="enable-background:new 0 0 97.16 97.16;" xml:space="preserve"
	>
<g>
	<g>
		<path d="M48.58,0C21.793,0,0,21.793,0,48.58s21.793,48.58,48.58,48.58s48.58-21.793,48.58-48.58S75.367,0,48.58,0z M48.58,86.823
			c-21.087,0-38.244-17.155-38.244-38.243S27.493,10.337,48.58,10.337S86.824,27.492,86.824,48.58S69.667,86.823,48.58,86.823z"/>
		<path d="M73.898,47.08H52.066V20.83c0-2.209-1.791-4-4-4c-2.209,0-4,1.791-4,4v30.25c0,2.209,1.791,4,4,4h25.832
			c2.209,0,4-1.791,4-4S76.107,47.08,73.898,47.08z"/>
	</g>
</g>
<g>
</g>
<g>
</g>
<g>
</g>
<g>
</g>
<g>
</g>
<g>
</g>
<g>
</g>
<g>
</g>
<g>
</g>
<g>
</g>
<g>
</g>
<g>
</g>
<g>
</g>
<g>
</g>
<g>
</g>
</svg>
